X:9
T:Storbrekkingen (pols)
R:rorospols
Z:2001 Brian Wilson <baab@mediaone.net>
Z:Storbrekkingen, Track #1
Z:Pols i Rorostraktom, #62
Z:Taught by Annar Gjelten, Boston 1994
M:3/4
L:1/8
K:D
|: "D"z2 vD2 (u(3ABc) | "D"d>(e f2) d>d | "A"d2 (cA) B>d | "A"(c/B/c) A4-
|  "D"Az vD2 (u(3ABc) | "D"d>(e f2) d>d | "A"d2 (cA) B>d
|[1 "A"(c/B/c) "D"d4 :|[2 "A"(c/B/c) "D"d3 (f |
|: "D"a2) (^ge) f>f | "D"f2 "A"(ec) "D"d>f
|  "D"a2 (^ge) f>d | "E"((3ef^g) "A"a3 (b
|  "D"a2) (^ge) f>f | "D"f2 "A"(ec) "D"d>d | "A"d2 cA B>B
|[1 "A"(c/B/c) "D"d3 (f :|[2 "A"(c/B/c) "D"d4 |
M:4/4
| "A"c3(e .a2) uc2 | "D"d6 ||
